X:1482
T:Bird's Nest, The
R:reel
D:Altan: Harvest Storm
O:Cape Breton
Z:id:hn-reel-461
M:C|
K:Ador
cA~A2 GABG|A2AB cded|cA~A2 GABG|1 Aage dced:|2 Aage decd||
|:ecag egcd|ecgc acgc|1 ecag edcd|eage decd:|2 ae~e2 edcd|eage dced||


